X:229
T:Reel \`a C\'edulie
C:Louis Pitou Boudreault
Z:gabie.letourneau@hotmail.ca 
M:4/4 
L:1/8 
R:reel 
K:F
cB |:AF (3FFF AFAF | CFAF GABc | ddBd cBAc | BAGB AFcB | 
AF (3FFF CFAF | GABc ddBd | cBAc Bdgf |1 ecde f2cB :|2 [M:2/4] ecde ||
[M:4/4] |:f2cf Afcf | Afag fedc | dg (3ggg dgeg | dgeg fedc | de f2 (3ccc Ac | 
agfe dcBA |1 GABc dfeg :|2GABc dfeg | [M:2/4] f2cB |]

